usr/share/icons/biglinux-icons-material/symbolic/actions/star-new-symbolic.svg

<svg width="16" height="16" version="1.1" xmlns="http://www.w3.org/2000/svg">
 <defs>
  <style id="current-color-scheme" type="text/css">.ColorScheme-Text {
        color:#363636;
      }</style>
 </defs>
 <path d="m7.959 1a1 1 0 0 0-0.875 0.59961l-1.4883 3.4004h-3.8457c-0.92 1e-3 -1.3501 1.137-0.66406 1.748l2.9941 2.6523-1.5215 4.2637c-0.315 0.887 0.65889 1.6785 1.4629 1.1895l3.9785-2.4316 0.0019531 0.001953a4.5 4.5 0 0 1 0.15039-1.0801l-0.15234-0.09375-4.5 2.75 1.75-4.8984-3.5-3.1016h4.5l1.75-4 1 2.2852 0.75 1.7148h4.5l-2.2949 2.0332a4.5 4.5 0 0 1 0.54492-0.033203 4.5 4.5 0 0 1 0.89844 0.089844l1.5156-1.3418a1 1 0 0 0-0.66406-1.748h-3.8457l-1.4043-3.209-0.083984-0.19141a1 1 0 0 0-0.14844-0.24023l-0.011719-0.013672a1 1 0 0 0-0.20508-0.17773 1 1 0 0 0-0.0019531-0.0019532l-0.011719-0.0058594a1 1 0 0 0-0.23828-0.11328l-0.017578-0.0078125a1 1 0 0 0-0.28125-0.039062 1 1 0 0 0-0.041016 0z" color="#363636" fill="#363636"/>
 <path class="ColorScheme-Text" d="m12.5 9c-1.933 0-3.5 1.567-3.5 3.5s1.567 3.5 3.5 3.5 3.5-1.567 3.5-3.5-1.567-3.5-3.5-3.5zm-0.5 1h1v2h2v1h-2v2h-1v-2h-2v-1h2z" color="#363636" fill="currentColor"/>
</svg>

<svg xmlns="http://www.w3.org/2000/svg" width="16" height="16"><path fill="#dedede" d="M7.959 1a1 1 0 0 0-.875.6L5.596 5H1.75C.83 5.001.4 6.137 1.086 6.748L4.08 9.4l-1.521 4.264c-.315.887.658 1.679 1.462 1.19L8 12.422l.002.002a4.5 4.5 0 0 1 .15-1.08L8 11.25 3.5 14l1.75-4.898L1.75 6h4.5L8 2l1 2.285L9.75 6h4.5l-2.295 2.033A4.5 4.5 0 0 1 12.5 8a4.5 4.5 0 0 1 .898.09l1.516-1.342A1 1 0 0 0 14.25 5h-3.846L9 1.791 8.916 1.6a1 1 0 0 0-.148-.24l-.012-.014a1 1 0 0 0-.205-.178 1 1 0 0 0-.002-.002l-.012-.006a1 1 0 0 0-.238-.113l-.018-.008A1 1 0 0 0 8 1a1 1 0 0 0-.041 0z" color="#dedede"/><path fill="currentColor" d="M12.5 9a3.5 3.5 0 1 0 0 7 3.5 3.5 0 0 0 0-7zm-.5 1h1v2h2v1h-2v2h-1v-2h-2v-1h2z" color="#dedede" style="color:#dedede"/></svg>
